components/icon/svg/24/communication_mobile-phone.svg

<?xml version="1.0" encoding="UTF-8"?>
<svg width="24px" height="24px" viewBox="0 0 24 24" version="1.1" xmlns="http://www.w3.org/2000/svg" xmlns:xlink="http://www.w3.org/1999/xlink">
    <!-- Generator: Sketch 64 (93537) - https://sketch.com -->
    <title>ic-db_communication_mobile-phone_24</title>
    <desc>Created with Sketch.</desc>
    <g id="Symbols:Icon" stroke="none" stroke-width="1" fill="none" fill-rule="evenodd">
        <g id="24dp-Icon/Communication/Mobile-Phone" fill="#282D37">
            <path d="M14.9941,2 C16.6614,2 18,3.3386 18,5.0059 L18,19.0489 C18,20.6928 16.6614,22 14.9941,22 L9.0059,22 C7.3386,22 6,20.6928 6,19.0489 L6,5.0059 C6,3.3386 7.3386,2 9.0059,2 L14.9941,2 Z M9.99612505,4 L9.00788563,4 C8.44317739,4 7.9961,4.44576538 7.9961,5.0088164 L7.9961,19.0381378 C7.9961,19.5777117 8.4667236,20 9.00788563,20 L15.0078606,20 C15.5490226,20 15.9961,19.5542346 15.9961,19.0146607 L15.9961,4.98533929 C15.9961,4.43537551 15.5496238,4 15.0078606,4 L13.996075,4 C13.996075,4.66565099 13.5202411,4.98533929 13.0078355,4.98533929 L11.0079107,4.98533929 C10.4666485,4.98533929 9.99612505,4.53957392 9.99612505,4 Z M10,17.0174079 C10,16.4969079 10.43264,15.9977079 10.9917702,16 L12.9898748,16.0077079 C13.5734451,16.0099079 14,16.4400079 14,17.0057079 C14,17.5056079 13.6113522,18.0039079 12.9907726,18.0039079 L10.9917702,18.0039079 C10.4362312,18.0039079 10,17.5341079 10,17.0174079 Z" id="🎨-Color"></path>
        </g>
    </g>
</svg>

<svg width="24" height="24" xmlns="http://www.w3.org/2000/svg"><path d="M14.994 2A2.997 2.997 0 0118 5.006v14.043C18 20.693 16.661 22 14.994 22H9.006C7.339 22 6 20.693 6 19.049V5.006A2.997 2.997 0 019.006 2h5.988zM9.996 4h-.988c-.565 0-1.012.446-1.012 1.009v14.03c0 .539.47.961 1.012.961h6a.993.993 0 00.988-.985V4.985A.986.986 0 0015.008 4h-1.012c0 .666-.476.985-.988.985h-2c-.541 0-1.012-.445-1.012-.985zM10 17.017c0-.52.433-1.02.992-1.017l1.998.008c.583.002 1.01.432 1.01.998 0 .5-.389.998-1.01.998h-1.998c-.556 0-.992-.47-.992-.987z" fill="#282D37" fill-rule="evenodd"/></svg>
